X:2
T:Cooleys Reel
R:reel
O:Ireland
M:4/4
L:1/8
K:Edor
zF  | "Em" EBBA  B2 EB | B2  AB dBAG | "D" (3(FED) AD BDAD | (3(FED)   AD  BAGF |
      "Em" EBBA  B2 EB | B2  AB defg | "D" afec   "G" dBAF | "D" DEFD   "Em" E2 :|
gf  | "Em" eB ~B2 eBgB | eB ~B2 gedB | "D" A2   FA    DAFA | A2     FA     defg |
    | "Em" eB ~B2 eBgB | eB ~B2 defg | "D" afec   "G" dBAF | "D" DEFD   "Em" E2 :|
